images/icon-services-8.svg

<svg width="48" height="48" viewBox="0 0 48 48" fill="none" xmlns="http://www.w3.org/2000/svg">
<path d="M10.8384 15.3562V15.0968H9.29004V15.3562C9.29004 15.7998 9.30165 16.2434 9.3241 16.6847L10.8709 16.6057C10.85 16.19 10.8384 15.7742 10.8384 15.3562Z" fill="#0E384C"/>
<path d="M10.9944 18.1053L9.45605 18.2811C9.89889 22.1807 11.2584 25.9921 13.3866 29.3017L14.6888 28.4641C12.6883 25.3526 11.4117 21.7704 10.9944 18.1053Z" fill="#0E384C"/>
<path d="M28.5373 7.51892C27.1964 8.42473 25.6271 8.90318 23.9998 8.90318C22.3724 8.90318 20.8039 8.42473 19.463 7.5197L18.5967 8.80331C20.1946 9.88176 22.0627 10.4516 23.9998 10.4516C25.9368 10.4516 27.8049 9.88176 29.4036 8.80253L28.5373 7.51892Z" fill="#0E384C"/>
<path d="M6.96774 29.8064H5.41935C5.41935 32.794 2.98761 35.2258 0 35.2258V36.7741C2.98761 36.7741 5.41935 39.2059 5.41935 42.1935H6.96774C6.96774 39.2059 9.39948 36.7741 12.3871 36.7741V35.2258C9.39948 35.2258 6.96774 32.794 6.96774 29.8064ZM6.19355 39.0154C5.52774 37.7225 4.47097 36.6658 3.17806 35.9999C4.47097 35.3341 5.52774 34.2774 6.19355 32.9845C6.85935 34.2774 7.91613 35.3341 9.20903 35.9999C7.91613 36.6658 6.85935 37.7225 6.19355 39.0154Z" fill="#0E384C"/>
<path d="M42.5805 9.67743H41.0979C39.6315 6.03021 36.0424 3.48389 31.9756 3.48389C30.0556 3.48389 28.2501 4.00337 26.7544 4.98505C25.0984 6.07511 22.902 6.07511 21.2452 4.98505C19.7503 4.00337 17.9448 3.48389 16.0241 3.48389C10.6032 3.48389 6.19336 7.89369 6.19336 13.3146V15.3561C6.19336 20.9071 7.78046 26.3079 10.782 30.977C12.397 33.4893 13.583 36.2323 14.3077 39.1293L15.15 42.5001C15.4457 43.6878 16.5072 44.5161 17.7304 44.5161C19.0581 44.5161 20.1652 43.5631 20.3611 42.2501L22.0976 30.6697C22.2408 29.7213 23.0406 29.0323 23.9998 29.0323C24.959 29.0323 25.7588 29.7213 25.9012 30.6697L27.6377 42.2501C27.8344 43.5631 28.9415 44.5161 30.2692 44.5161C31.4925 44.5161 32.5539 43.6878 32.8496 42.5001L33.6927 39.1293C34.4174 36.2315 35.6042 33.4885 37.2192 30.977C38.9836 28.2318 40.2741 25.166 41.029 21.984C41.0282 22.0111 41.0321 22.0374 41.0321 22.0645H42.5805C42.5805 19.0769 45.0122 16.6452 47.9998 16.6452V15.0968C45.0122 15.0968 42.5805 12.665 42.5805 9.67743ZM35.9162 30.1394C34.2091 32.7949 32.9565 35.6934 32.1908 38.7546L31.3469 42.1254C31.2238 42.6217 30.7802 42.9678 30.2692 42.9678C29.7141 42.9678 29.2519 42.569 29.1699 42.0201L27.4334 30.4398C27.1763 28.7265 25.7317 27.4839 23.9998 27.4839C22.2679 27.4839 20.8233 28.7265 20.5663 30.4398L18.8297 42.0201C18.7485 42.569 18.2855 42.9678 17.7304 42.9678C17.2194 42.9678 16.7758 42.6217 16.6512 42.1254L15.8081 38.7546C15.0432 35.6927 13.7897 32.7941 12.0826 30.1394C9.24291 25.721 7.74175 20.609 7.74175 15.3561V13.3146C7.74175 8.74763 11.4571 5.03227 16.0241 5.03227C17.6414 5.03227 19.1526 5.4635 20.3944 6.2795C21.479 6.99253 22.693 7.35485 23.9998 7.35485C25.3067 7.35485 26.5206 6.99253 27.6045 6.2795C28.847 5.4635 30.3583 5.03227 31.9756 5.03227C36.0602 5.03227 39.5843 8.07563 40.165 12.0496L40.1975 12.5536C39.2375 14.078 37.5436 15.0968 35.6127 15.0968V16.6452C37.4305 16.6452 39.0385 17.5479 40.0217 18.9252C39.4992 22.8952 38.0808 26.7716 35.9162 30.1394ZM41.8063 18.8865C41.1405 17.5936 40.0837 16.5368 38.7908 15.871C40.0837 15.2052 41.1405 14.1484 41.8063 12.8555C42.4721 14.1484 43.5288 15.2052 44.8217 15.871C43.5288 16.5368 42.4721 17.5936 41.8063 18.8865Z" fill="#1E84B5"/>
</svg>

<svg xmlns="http://www.w3.org/2000/svg" width="48" height="48" fill="none" viewBox="0 0 48 48"><path fill="#0e384c" d="M10.838 15.356v-.26H9.29v.26q0 .666.034 1.329l1.547-.08q-.032-.621-.033-1.249m.156 2.749-1.538.176a25.9 25.9 0 0 0 3.93 11.02l1.303-.837a24.35 24.35 0 0 1-3.695-10.359M28.537 7.519A8.07 8.07 0 0 1 24 8.903a8.1 8.1 0 0 1-4.537-1.383l-.866 1.283A9.6 9.6 0 0 0 24 10.452a9.6 9.6 0 0 0 5.404-1.65zM6.968 29.806H5.419A5.426 5.426 0 0 1 0 35.226v1.548a5.426 5.426 0 0 1 5.42 5.42h1.548a5.426 5.426 0 0 1 5.42-5.42v-1.548a5.426 5.426 0 0 1-5.42-5.42m-.774 9.21A7 7 0 0 0 3.178 36a7 7 0 0 0 3.016-3.016A7 7 0 0 0 9.209 36a7 7 0 0 0-3.015 3.015"/><path fill="#1e84b5" d="M42.58 9.677h-1.482c-1.466-3.647-5.056-6.193-9.122-6.193-1.92 0-3.726.52-5.222 1.501a5.05 5.05 0 0 1-5.509 0c-1.495-.982-3.3-1.501-5.22-1.501-5.422 0-9.832 4.41-9.832 9.83v2.042a28.83 28.83 0 0 0 4.589 15.621 27.3 27.3 0 0 1 3.526 8.152l.842 3.371a2.654 2.654 0 0 0 2.58 2.016 2.64 2.64 0 0 0 2.631-2.266l1.737-11.58A1.91 1.91 0 0 1 24 29.032c.959 0 1.759.69 1.901 1.638l1.737 11.58a2.645 2.645 0 0 0 2.631 2.266 2.654 2.654 0 0 0 2.58-2.016l.844-3.37a27.3 27.3 0 0 1 3.526-8.153 29.1 29.1 0 0 0 3.81-8.993l.003.08h1.549A5.426 5.426 0 0 1 48 16.646v-1.548a5.426 5.426 0 0 1-5.42-5.42M35.917 30.14a28.8 28.8 0 0 0-3.725 8.616l-.844 3.37a1.11 1.11 0 0 1-1.078.843 1.105 1.105 0 0 1-1.1-.948l-1.736-11.58A3.45 3.45 0 0 0 24 27.484a3.45 3.45 0 0 0-3.434 2.956L18.83 42.02a1.104 1.104 0 0 1-1.1.948c-.51 0-.954-.346-1.079-.843l-.843-3.37a28.8 28.8 0 0 0-3.725-8.616 27.3 27.3 0 0 1-4.341-14.783v-2.041c0-4.567 3.715-8.283 8.282-8.283 1.617 0 3.129.431 4.37 1.247A6.46 6.46 0 0 0 24 7.355a6.45 6.45 0 0 0 3.605-1.076c1.242-.816 2.753-1.247 4.37-1.247 4.085 0 7.61 3.044 8.19 7.018l.032.504a5.42 5.42 0 0 1-4.584 2.543v1.548c1.818 0 3.425.903 4.409 2.28a27.5 27.5 0 0 1-4.106 11.214m5.89-11.252a7 7 0 0 0-3.015-3.016 7 7 0 0 0 3.015-3.016 7 7 0 0 0 3.016 3.016 7 7 0 0 0-3.016 3.016"/></svg>
